svgs/timetree.svg

<svg viewBox="0 0 192 192" xml:space="preserve" style="fill-rule:evenodd;clip-rule:evenodd;stroke-linejoin:round;stroke-miterlimit:2" xmlns="http://www.w3.org/2000/svg"><path d="M1124.07 722.734c-6.35.704-14.44 2.971-19.35 6.429-15.47 10.894-27.74 29.571-27.74 29.571a5.97 5.97 0 0 0-.72 5.017 5.988 5.988 0 0 0 3.37 3.782s14.02 5.964 25.7 6.185c5.78.109 22.63-.548 36.72-11.818.8-.646 1.57-1.294 2.32-1.943v.003c-1.28 5.095-1.5 11.545-.96 17.023 1.66 16.754 16.23 32.128 16.23 32.128a5.99 5.99 0 0 0 4.45 1.84 6.008 6.008 0 0 0 4.37-2.021s6.94-7.795 10.81-19.035c2.02-5.894 4.26-20.697-.16-32.723-.1-.293-.21-.583-.32-.869.85.685 1.74 1.36 2.68 2.016 4.3 3.024 10.06 5.469 15.38 6.929 16.16 4.439 35.28-2.708 35.28-2.708a6.017 6.017 0 0 0 3.62-3.876 6.04 6.04 0 0 0-.87-5.227s-5.5-7.669-12.57-15.944c-3.94-4.61-17.4-12.915-30.41-13.31 1.1-.703 2.2-1.454 3.3-2.256 4.95-3.631 9.68-9.767 13.08-15.228 10.31-16.541 8.25-40.352 8.25-40.352a5.981 5.981 0 0 0-2.65-4.445 5.995 5.995 0 0 0-5.12-.732s-10.7 3.354-22.47 8.581c-6.06 2.693-18.13 11.617-24.04 26.823-.15-.584-.3-1.171-.47-1.765-2.04-7.356-7.11-14.406-12.3-19.775-13.26-13.732-41.62-21.769-41.62-21.769a6.018 6.018 0 0 0-5.18.962 5.985 5.985 0 0 0-2.42 4.668s-.36 13.941 1.32 28.562c.9 7.869 6.2 23.735 22.49 35.277Zm39.55 72.369c-3.4-4.703-7.53-11.804-8.27-19.3-.41-4.158-.31-9.057.66-12.925 1.36-5.422 3.89-9.79 6.07-12.788 1.78 2.497 3.91 6.167 5.77 11.22 3.33 9.071 1.6 20.237.07 24.682-1.22 3.543-2.82 6.655-4.3 9.111Zm-72.11-36.006c4.43-5.731 11.74-14.221 20.12-20.124 3.97-2.8 10.97-4.268 15.61-4.457 8.14-.332 15.29 1.898 19.71 3.742-2.05 3.648-5.85 9.025-12.4 14.273-11.11 8.886-24.44 9.275-28.99 9.189-4.76-.09-9.98-1.359-14.05-2.623Zm128.43-5.527c-5.5 1.166-13.04 1.994-19.91.107-4.02-1.105-8.41-2.891-11.66-5.178-4.74-3.322-8.1-7.22-10.26-10.23 3.04-1.11 7.46-2.18 13.11-2.098 9.31.134 19.15 5.821 21.97 9.121 2.53 2.961 4.85 5.84 6.75 8.278Zm-107.66-86.296c8.23 2.929 21.16 8.422 28.57 16.096 3.87 4.01 7.84 9.158 9.37 14.651 2.98 10.714 2.97 18.941 2.52 23.687-4.86-.661-12.94-2.643-21.39-8.52-12.74-8.866-17.16-21.01-17.85-27.096-.8-6.98-1.11-13.795-1.22-18.818Zm92.43 7.984c-.26 6.89-1.6 17.054-6.61 25.093-2.64 4.228-6.17 9.088-10 11.899-6.26 4.592-12.8 7.152-17.23 8.497-.51-3.966-.57-10.077 1.74-17.468 4.01-12.784 13.72-20.415 18.55-22.561 5-2.22 9.79-4.083 13.55-5.46Z" style="fill-rule:evenodd;clip-rule:evenodd;stroke-linejoin:round;stroke-miterlimit:2" transform="translate(-1060 -636)"/></svg>

<?xml version="1.0" encoding="UTF-8" standalone="no"?>
<svg
   width="100%"
   height="100%"
   viewBox="0 0 192 192"
   version="1.1"
   xml:space="preserve"
   style="fill-rule:evenodd;clip-rule:evenodd;stroke-linejoin:round;stroke-miterlimit:2;"
   id="svg4743"
   sodipodi:docname="timetree.svg"
   inkscape:version="1.2.1 (9c6d41e410, 2022-07-14)"
   xmlns:inkscape="http://www.inkscape.org/namespaces/inkscape"
   xmlns:sodipodi="http://sodipodi.sourceforge.net/DTD/sodipodi-0.dtd"
   xmlns="http://www.w3.org/2000/svg"
   xmlns:svg="http://www.w3.org/2000/svg"><defs
   id="defs4747" /><sodipodi:namedview
   id="namedview4745"
   pagecolor="#ffffff"
   bordercolor="#000000"
   borderopacity="0.25"
   inkscape:showpageshadow="2"
   inkscape:pageopacity="0.0"
   inkscape:pagecheckerboard="0"
   inkscape:deskcolor="#d1d1d1"
   showgrid="false"
   inkscape:zoom="5.3489583"
   inkscape:cx="95.906524"
   inkscape:cy="95.906524"
   inkscape:window-width="1274"
   inkscape:window-height="1303"
   inkscape:window-x="1282"
   inkscape:window-y="36"
   inkscape:window-maximized="0"
   inkscape:current-layer="svg4743" />
    <path
   d="M1124.07,722.734C1117.72,723.438 1109.63,725.705 1104.72,729.163C1089.25,740.057 1076.98,758.734 1076.98,758.734C1076.01,760.217 1075.74,762.053 1076.26,763.751C1076.77,765.448 1078,766.832 1079.63,767.533C1079.63,767.533 1093.65,773.497 1105.33,773.718C1111.11,773.827 1127.96,773.17 1142.05,761.9C1142.85,761.254 1143.62,760.606 1144.37,759.957L1144.37,759.96C1143.09,765.055 1142.87,771.505 1143.41,776.983C1145.07,793.737 1159.64,809.111 1159.64,809.111C1160.8,810.319 1162.41,810.986 1164.09,810.951C1165.76,810.917 1167.35,810.184 1168.46,808.93C1168.46,808.93 1175.4,801.135 1179.27,789.895C1181.29,784.001 1183.53,769.198 1179.11,757.172C1179.01,756.879 1178.9,756.589 1178.79,756.303C1179.64,756.988 1180.53,757.663 1181.47,758.319C1185.77,761.343 1191.53,763.788 1196.85,765.248C1213.01,769.687 1232.13,762.54 1232.13,762.54C1233.87,761.879 1235.21,760.446 1235.75,758.664C1236.28,756.881 1235.96,754.95 1234.88,753.437C1234.88,753.437 1229.38,745.768 1222.31,737.493C1218.37,732.883 1204.91,724.578 1191.9,724.183C1193,723.48 1194.1,722.729 1195.2,721.927C1200.15,718.296 1204.88,712.16 1208.28,706.699C1218.59,690.158 1216.53,666.347 1216.53,666.347C1216.37,664.541 1215.39,662.907 1213.88,661.902C1212.38,660.897 1210.49,660.628 1208.76,661.17C1208.76,661.17 1198.06,664.524 1186.29,669.751C1180.23,672.444 1168.16,681.368 1162.25,696.574C1162.1,695.99 1161.95,695.403 1161.78,694.809C1159.74,687.453 1154.67,680.403 1149.48,675.034C1136.22,661.302 1107.86,653.265 1107.86,653.265C1106.08,652.772 1104.17,653.127 1102.68,654.227C1101.2,655.326 1100.3,657.049 1100.26,658.895C1100.26,658.895 1099.9,672.836 1101.58,687.457C1102.48,695.326 1107.78,711.192 1124.07,722.734ZM1163.62,795.103C1160.22,790.4 1156.09,783.299 1155.35,775.803C1154.94,771.645 1155.04,766.746 1156.01,762.878C1157.37,757.456 1159.9,753.088 1162.08,750.09C1163.86,752.587 1165.99,756.257 1167.85,761.31C1171.18,770.381 1169.45,781.547 1167.92,785.992C1166.7,789.535 1165.1,792.647 1163.62,795.103ZM1091.51,759.097C1095.94,753.366 1103.25,744.876 1111.63,738.973C1115.6,736.173 1122.6,734.705 1127.24,734.516C1135.38,734.184 1142.53,736.414 1146.95,738.258C1144.9,741.906 1141.1,747.283 1134.55,752.531C1123.44,761.417 1110.11,761.806 1105.56,761.72C1100.8,761.63 1095.58,760.361 1091.51,759.097L1091.51,759.097ZM1219.94,753.57C1214.44,754.736 1206.9,755.564 1200.03,753.677C1196.01,752.572 1191.62,750.786 1188.37,748.499C1183.63,745.177 1180.27,741.279 1178.11,738.269C1181.15,737.159 1185.57,736.089 1191.22,736.171C1200.53,736.305 1210.37,741.992 1213.19,745.292C1215.72,748.253 1218.04,751.132 1219.94,753.57ZM1112.28,667.274C1120.51,670.203 1133.44,675.696 1140.85,683.37C1144.72,687.38 1148.69,692.528 1150.22,698.021C1153.2,708.735 1153.19,716.962 1152.74,721.708C1147.88,721.047 1139.8,719.065 1131.35,713.188C1118.61,704.322 1114.19,692.178 1113.5,686.092C1112.7,679.112 1112.39,672.297 1112.28,667.274ZM1204.71,675.258C1204.45,682.148 1203.11,692.312 1198.1,700.351C1195.46,704.579 1191.93,709.439 1188.1,712.25C1181.84,716.842 1175.3,719.402 1170.87,720.747C1170.36,716.781 1170.3,710.67 1172.61,703.279C1176.62,690.495 1186.33,682.864 1191.16,680.718C1196.16,678.498 1200.95,676.635 1204.71,675.258Z"
   id="path4737"
   style="fill-rule:evenodd;clip-rule:evenodd;stroke-linejoin:round;stroke-miterlimit:2"
   transform="translate(-1060,-636)"
   inkscape:label="timetree" />
</svg>
